X:1
T:Olivet (Mason), 66.46.66.4
T:Olivet (Mason), 66.46.66.4
T:Lowell Mason, 1831
T:Public Domain Courtesy of the Cyber Hymnal™
C:Lowell Mason, 1831
Z:Public Domain
Z:Courtesy of the Cyber Hymnal™
%%score ( 1 2 ) 3
L:1/8
Q:1/4=108
M:4/4
K:Eb
V:1 treble 
V:2 treble 
V:3 bass 
V:1
 E4 [EG]2 [GB]2 | [FB]3 [FA] [EG]4 | [DF]4 [DF]2 [FA]2 | [FA]3 [EG] [DF]4 | [EG]4 [DF]2 [Ec]2 | %5
 [DB]8 | [GB]4 [EG]2 [EA]2 | [EB]3 [Ec] [EB]4 | [GB]4 [EG]2 [DA]2 | [EB]3 [Ec] [EB]4 | %10
 [Ge]4 [Gd]2 [Ec]2 | [EB]3 [EA] [EG]2 E2 | [EF]4 [DB]4 | E8 |] %14
V:2
 E4 x4 | x8 | x8 | x8 | x8 | x8 | x8 | x8 | x8 | x8 | x8 | x8 | x8 | E8 |] %14
V:3
 [E,G,]4 [E,B,]2 [E,B,]2 | [D,B,]3 [D,B,] [E,B,]4 | [B,,B,]4 [B,,B,]2 [B,,B,]2 | %3
 [D,B,]3 [E,B,] [B,,B,]4 | [E,B,]4 [F,B,]2 [F,=A,]2 | [B,,B,]8 | [E,B,]4 [E,B,]2 [E,C]2 | %7
 [E,G,]3 [E,A,] [E,G,]4 | [E,B,]4 [G,B,]2 [F,A,]2 | [E,G,]3 [E,A,] [E,G,]4 | [C,C]4 [G,B,]2 A,2 | %11
 [E,G,]3 [E,C] [E,B,]2 [G,,B,]2 | [A,,C]4 [B,,B,]4 | [E,G,]8 |] %14

